X: 1
T: New Paths
C: David A. Kaynor, May 2021
%D:2021
Z: 2021 John Chambers <jc:trillian.mit.edu>
M: 4/4
L: 1/8
K: A
|: eg \
| "A"a2ag"D" f2ed | "A"c2ec "E7"dBAG | "Bm"FAED "A/C#"CEAB | "D"cAdc "E" B2eg |
| "A"a2ag"D" f2ed | "A"c2ec "E7"dBGE | "Bm"DFED "A/C#" CEAB | "E7"cABG "A" A2 :|
|: AB \
| "A"c2cA EAAB | c2cA EAAB | "F#m"cAFA cAFA | "Bm" dBfe "E" e2fg |
| "A"a2ag "D"f2ed | "A"c2ec "E"dBGE | "Bm"DFED"A/C#" CEAB | "E7"cABG "A"A2 :|
